Adwaita++/places/16/folder-meocloud.svg

<svg height="16" width="16" xmlns="http://www.w3.org/2000/svg">
  <path d="m9 3c-1.5032 0-2.8787469.8459469-3.5605469 2.1855469-.2983-.1218-.6172531-.1848469-.9394531-.1855469-1.2505 0-2.3076094.9267156-2.4746094 2.1660156-1.21059997.4159-2.0239906 1.5539844-2.0253906 2.8339844 0 1.657 1.3431 3 3 3h9c1.657 0 3-1.343 3-3-.001-1.2733-.805813-2.407025-2.007812-2.828125.003999-.057.006812-.114575.007812-.171875 0-2.2091-1.791-4-4-4zm0 1.9980469v.0019531c1.127 0 1.996047.8701937 1.998047 1.9960938-.001.014-.000953.0289687-.001953.0429687a2.0002 2.0002 0 0 0 1.333984 2.0214844c.407.1427.669922.5097062.669922.9414061-.001.575-.425.998047-1 .998047h-9c-.5751 0-.9967469-.423047-.9980469-.998047.0017-.4326999.2641282-.8025593.6738281-.9433592a2.0002 2.0002 0 0 0 1.3320313-1.625c.0355-.2631.2297875-.4335938.4921875-.4335938.063.0007.1250937.0111562.1835938.0351562a2.0002 2.0002 0 0 0 2.5390624-.9414062c.343-.674 1.0244438-1.0957031 1.7773438-1.0957031z" fill="#474747"/>
</svg>

<svg xmlns="http://www.w3.org/2000/svg" width="16" height="16">
 <defs>
  <style id="current-color-scheme" type="text/css">
   .ColorScheme-Text { color:#474747; } .ColorScheme-Highlight { color:#4285f4; }
  </style>
 </defs>
 <path style="fill:currentColor" class="ColorScheme-Text" d="M 9 3 C 7.4968 3 6.1212531 3.8459469 5.4394531 5.1855469 C 5.1411531 5.0637469 4.8222 5.0007 4.5 5 C 3.2495 5 2.1923906 5.9267156 2.0253906 7.1660156 C 0.81479063 7.5819156 0.0014 8.72 0 10 C 0 11.657 1.3431 13 3 13 L 12 13 C 13.657 13 15 11.657 15 10 C 14.999 8.7267 14.194187 7.592975 12.992188 7.171875 C 12.996187 7.114875 12.999 7.0573 13 7 C 13 4.7909 11.209 3 9 3 z M 9 4.9980469 L 9 5 C 10.127 5 10.996047 5.8701937 10.998047 6.9960938 C 10.997047 7.0100938 10.997094 7.0250625 10.996094 7.0390625 A 2.0002 2.0002 0 0 0 12.330078 9.0605469 C 12.737078 9.2032469 13 9.5702531 13 10.001953 C 12.999 10.576953 12.575 11 12 11 L 3 11 C 2.4249 11 2.0032531 10.576953 2.0019531 10.001953 C 2.0036531 9.5692531 2.2660813 9.1993937 2.6757812 9.0585938 A 2.0002 2.0002 0 0 0 4.0078125 7.4335938 C 4.0433125 7.1704938 4.2376 7 4.5 7 C 4.563 7.0007 4.6250937 7.0111562 4.6835938 7.0351562 A 2.0002 2.0002 0 0 0 7.2226562 6.09375 C 7.5656562 5.41975 8.2471 4.9980469 9 4.9980469 z"/>
</svg>
